src/asset/image/vacation.svg

<svg width="24" height="24" viewBox="0 0 24 24" fill="none" xmlns="http://www.w3.org/2000/svg">
<path fill-rule="evenodd" clip-rule="evenodd" d="M10.3367 0L10.8973 1.96568C16.919 0.516592 22.3647 1.88447 23.3078 5.19679L24 7.62766L19.1735 9.02142L17.9314 8.32805L17.2429 9.57892L13.3815 10.6934L15.4946 19.0089C19.7309 19.1619 23.188 21.2679 23.8756 24H21.752C21.4934 23.4761 21.0175 22.9301 20.2546 22.4215C18.9974 21.5834 17.1455 21 15 21C12.8545 21 11.0026 21.5834 9.74544 22.4215C8.98248 22.9301 8.50659 23.4761 8.24802 24H6.12444C6.75269 21.5035 9.69349 19.5297 13.4282 19.0912L11.4509 11.2509L7.58984 12.3664L6.34774 11.6731L5.65923 12.924L0.832713 14.3177L0.140563 11.8868C-0.802614 8.57435 3.09633 4.50786 8.96605 2.52333L8.40613 0.557505L10.3367 0ZM21.3843 5.74448C20.8367 3.82124 16.6891 2.71664 11.6794 3.83723L11.3652 3.91017L10.465 4.127L9.60662 4.41797C4.68941 6.08047 1.63458 9.22963 2.0332 11.2116L2.06411 11.3391L2.206 11.839L4.307 11.232L5.5658 8.94606L7.836 10.213L15.89 7.887L17.1494 5.60103L19.419 6.868L21.53 6.259L21.3843 5.74448Z" fill="#3E3832"/>
</svg>

<svg width="24" height="24" viewBox="0 0 24 24" fill="none" xmlns="http://www.w3.org/2000/svg"><path fill-rule="evenodd" clip-rule="evenodd" d="M10.337 0l.56 1.966c6.022-1.45 11.468-.082 12.41 3.23L24 7.629 19.174 9.02l-1.243-.693-.688 1.25-3.861 1.115 2.113 8.316c4.236.153 7.693 2.259 8.38 4.991h-2.123c-.259-.524-.735-1.07-1.497-1.578C18.997 21.583 17.145 21 15 21c-2.146 0-3.997.583-5.255 1.422-.763.508-1.238 1.054-1.497 1.578H6.124c.629-2.497 3.57-4.47 7.304-4.909l-1.977-7.84-3.861 1.115-1.242-.693-.689 1.251-4.826 1.394-.692-2.431c-.944-3.313 2.955-7.38 8.825-9.364L8.406.558 10.336 0zm11.047 5.744c-.547-1.923-4.695-3.027-9.705-1.907l-.314.073-.9.217-.858.291C4.689 6.08 1.635 9.23 2.033 11.212l.031.127.142.5 2.101-.607 1.259-2.286 2.27 1.267 8.054-2.326 1.26-2.286 2.269 1.267 2.111-.609-.146-.515z" fill="#3E3832"/></svg>
